io/desktop-sharp.svg

<svg xmlns="http://www.w3.org/2000/svg" viewBox="0 0 512 512" height="1em" width="1em">
  <path d="M480 48H32a16 16 0 0 0-16 16v320a16 16 0 0 0 16 16h168v32h-72v32h256v-32h-72v-32h168a16 16 0 0 0 16-16V64a16 16 0 0 0-16-16Zm-20 36v216H52V84ZM240.13 354.08a16 16 0 1 1 13.79 13.79 16 16 0 0 1-13.79-13.79Z"/>
</svg>

<svg xmlns="http://www.w3.org/2000/svg" viewBox="0 0 512 512" height="1em" width="1em">
  <path d="M480,48H32A16,16,0,0,0,16,64V384a16,16,0,0,0,16,16H200v32H128v32H384V432H312V400H480a16,16,0,0,0,16-16V64A16,16,0,0,0,480,48ZM460,84V300H52V84ZM240.13,354.08a16,16,0,1,1,13.79,13.79A16,16,0,0,1,240.13,354.08Z"/>
</svg>
